.local/share/icons/Gruvbox-Plus-Dark/panel/22/synergy-panel-ok.svg

<svg xmlns="http://www.w3.org/2000/svg" width="22" height="22" version="1.1">
 <defs>
  <style id="current-color-scheme" type="text/css">
   .ColorScheme-Text { color:#ebdbb2; } .ColorScheme-Highlight { color:#458588; }
  </style>
 </defs>
 <path style="opacity:0.3;fill:currentColor" class="ColorScheme-Text" d="M 11,3 C 6.581722,3 3,6.581722 3,11 L 4.5,13 6,11 C 6,8.2385763 8.2385763,6 11,6 L 9,4.5 Z"/>
 <path style="fill:currentColor" class="ColorScheme-Text" d="M 11 3 L 9 4.5 L 11 6 A 5 5 0 0 1 16 11 L 17.5 9 L 19 11 A 8 8 0 0 0 11 3 z M 3 11 A 8 8 0 0 0 11 19 L 13 17.5 L 11 16 A 5 5 0 0 1 6 11 L 4.5 13 L 3 11 z"/>
 <path style="fill:currentColor" class="ColorScheme-Text" d="m 16.766196,11.00526 c -0.265312,0.01593 -0.534044,0.05939 -0.800781,0.13086 -2.1339,0.5718 -3.399825,2.764537 -2.828125,4.898437 0.57174,2.1338 2.764537,3.399925 4.898437,2.828125 2.1339,-0.5718 3.399825,-2.764537 2.828125,-4.898437 -0.500272,-1.867075 -2.24047,-3.070476 -4.097656,-2.958985 z m 1.710937,1.988282 a 0.50005,0.50005 0 0 1 0.470704,0.728515 l -1.5,3 a 0.50005,0.50005 0 0 1 -0.72461,0.19336 l -1.5,-1 a 0.50005,0.50005 0 1 1 0.554688,-0.832032 l 1.029297,0.685547 1.246093,-2.492187 a 0.50005,0.50005 0 0 1 0.423828,-0.283203 z"/>
</svg>

<svg width="22" height="22" version="1.1" xmlns="http://www.w3.org/2000/svg">
  <defs>
    <style id="current-color-scheme" type="text/css">.ColorScheme-Text { color:#ebdbb2; } .ColorScheme-Highlight { color:#458588; } .ColorScheme-NeutralText { color:#fe8019; } .ColorScheme-PositiveText { color:#689d6a; } .ColorScheme-NegativeText { color:#fb4934; }</style>
  </defs>
  <path class="ColorScheme-Text" d="m11 3c-4.418 0-8 3.582-8 8l1.5 2 1.5-2c0-2.761 2.239-5 5-5l-2-1.5z" fill="currentColor" opacity=".3"/>
  <path class="ColorScheme-Text" d="m11 3-2 1.5 2 1.5a5 5 0 0 1 5 5l1.5-2 1.5 2a8 8 0 0 0-8-8zm-8 8a8 8 0 0 0 8 8l2-1.5-2-1.5a5 5 0 0 1-5-5l-1.5 2-1.5-2z" fill="currentColor"/>
  <path class="ColorScheme-Text" d="m16.77 11.01c-0.2653 0.01593-0.534 0.05939-0.8008 0.1309-2.134 0.5718-3.4 2.765-2.828 4.898 0.5717 2.134 2.765 3.4 4.898 2.828s3.4-2.765 2.828-4.898c-0.5003-1.867-2.24-3.07-4.098-2.959zm1.711 1.988a0.5 0.5 0 0 1 0.4707 0.7285l-1.5 3a0.5 0.5 0 0 1-0.7246 0.1934l-1.5-1a0.5 0.5 0 1 1 0.5547-0.832l1.029 0.6855 1.246-2.492a0.5 0.5 0 0 1 0.4238-0.2832z" fill="currentColor"/>
</svg>
